X:3082
T:Pollonois efter Gustaf Andersson
M:3/4
L:1/16
Q:100  
K:G
O:Blekinge
R:Pollonäs
G2GF G2D2 B,2D2 | G2GF G2B2 d2B2 | c2cB c2e2 A2c2 | F2A2 D2F2 A2F2 | 
G2GF G2D2 B,2D2 | G2GF G2B2 d2B2 | c2e2 A2c2 F2A2 | G4 G8 :|
|:A2AG A2c2 F2A2 | D2E2 F2G2 A2F2 | G2GF G2A2 B2c2 | d2e2 f2g2 d2B2 | 
c2cB c2e2 A2c2 | B2Ba B2d2 G2B2 | A2c2 F2A2 D2F2 | G4 G8 :|
(:musicend:)
(:music:)
